X:8
T:8. Eichelober
K: Eb
M:3/4
L:1/8
B,2 |: \
M:4/4
L:1/4
(G,E) (GE) | \
M:3/4
L:1/8
D2 F2 B,2 | E2 D2 B,2 | \
M:4/4
L:1/4
(G,E) (GE) | \
M:3/4
L:1/8
(D2 F2) B,2 |1
% End 1st line part A Eichelober
G,2 z2 B,2 :|2 G,2 z2 G2 |: (A2 A2) c2 | (G2 E2) G2 | (A2 A2) c2 | (G2 E2) B,2 |
% End 2nd line part A Eichelober
M:4/4
L:1/4
(G,2 E2) (G2 E2) |1 \
M:3/4
L:1/8
(D2 F2) B,2 | G,2 z2 G2 :|2 \
M:3/4
L:1/8
(D2 F2) A2 | G2 z2 E2 ||
% End part A Eichelober, start part B
K:Ab
M:4/4
L:1/4
(CE) (AE) | \
M:3/4
L:1/8
D2 G2 D2 | B,2 E2 E2 | \
M:4/4
L:1/4
(CE) (AE) | \
M:3/4
L:1/8
(D2 G2) D2 |1
% End 1st line part B Eichelober
C2 z2 E2 :|2 C2 z2 C2 |: (F2 D2) A2 | (E2 C2) A2 | (F2 D2) A2 | (E2 C2) E2 |
M:4/4
L:1/4
(CE) (AE) |1 \
M:3/4
L:1/8
(D2 G2) D2 | C2 z2 C2 :|2 \
M:3/4
L:1/8
(D2 G2) D2 | C2 z2 z2 |]
N:Written with second voice, 2012 Mar 30
% End Eichelober

